;FLAVOR:Marlin
;TIME:9380
;Filament used: 6.1811m
;Layer height: 0.2
;MINX:93.544
;MINY:114.036
;MINZ:0.2
;MAXX:206.456
;MAXY:185.964
;MAXZ:10
;TARGET_MACHINE.NAME:Creality CR-10
;Generated with Cura_SteamEngine 5.6.0
M140 S60
M105
M190 S60
M104 S210
M105
M109 S210
M82 ;absolute extrusion mode
M201 X500.00 Y500.00 Z100.00 E5000.00 ;Setup machine max acceleration
M203 X500.00 Y500.00 Z10.00 E50.00 ;Setup machine max feedrate
M204 P500.00 R1000.00 T500.00 ;Setup Print/Retract/Travel acceleration
M205 X8.00 Y8.00 Z0.40 E5.00 ;Setup Jerk
M220 S100 ;Reset Feedrate
M221 S100 ;Reset Flowrate

G28 ;Home

G92 E0 ;Reset Extruder
G1 Z2.0 F3000 ;Move Z Axis up
G1 X10.1 Y20 Z0.28 F5000.0 ;Move to start position
G1 X10.1 Y200.0 Z0.28 F1500.0 E15 ;Draw the first line
G1 X10.4 Y200.0 Z0.28 F5000.0 ;Move to side a little
G1 X10.4 Y20 Z0.28 F1500.0 E30 ;Draw the second line
G92 E0 ;Reset Extruder
G1 Z2.0 F3000 ;Move Z Axis up

G92 E0
G92 E0
G1 F2400 E-3
;LAYER_COUNT:50
;LAYER:0
M107
G0 F6000 X106.05 Y122.738 Z0.2
;TYPE:SKIRT
G1 F2400 E0
G1 F1200 X107.137 Y121.837 E0.04696
G1 X108.285 Y120.962 E0.09497
G1 X109.438 Y120.157 E0.14174
G1 X110.635 Y119.382 E0.18917
G1 X111.86 Y118.661 E0.23644
G1 X113.14 Y117.977 E0.28471
G1 X114.431 Y117.35 E0.33245
G1 X115.744 Y116.773 E0.38015
G1 X117.088 Y116.243 E0.4282
G1 X118.367 Y115.801 E0.47321
G1 X119.786 Y115.374 E0.5225
G1 X121.202 Y115.006 E0.57116
G1 X122.606 Y114.705 E0.61892
G1 X123.98 Y114.469 E0.66529
G1 X125.425 Y114.273 E0.71379
G1 X126.815 Y114.143 E0.76022
G1 X128.228 Y114.058 E0.8073
G1 X129.347 Y114.036 E0.84453
G1 X188.88 Y114.036 E2.8246
G1 X189.551 Y114.059 E2.84693
G1 X191.169 Y114.222 E2.90102
G1 X191.833 Y114.33 E2.9234
G1 X193.432 Y114.708 E2.97804
G1 X194.324 Y114.985 E3.00911
G1 X195.582 Y115.458 E3.05381
G1 X196.585 Y115.918 E3.09051
G1 X197.384 Y116.345 E3.12064
G1 X198.595 Y117.095 E3.16802
G1 X199.555 Y117.787 E3.20738
G1 X200.399 Y118.488 E3.24387
G1 X201.327 Y119.363 E3.28629
G1 X201.974 Y120.057 E3.31785
G1 X202.796 Y121.063 E3.36106
G1 X203.45 Y121.98 E3.39852
G1 X204.178 Y123.168 E3.44486
G1 X204.612 Y123.988 E3.47572
G1 X205.205 Y125.305 E3.52376
G1 X205.441 Y125.934 E3.54611
G1 X205.906 Y127.495 E3.60028
G1 X206.145 Y128.546 E3.63613
G1 X206.275 Y129.329 E3.66253
G1 X206.434 Y130.983 E3.71779
G1 X206.456 Y131.64 E3.73966
G1 X206.456 Y168.389 E4.96193
G1 X206.432 Y169.059 E4.98423
G1 X206.27 Y170.688 E5.03868
G1 X206.157 Y171.379 E5.06197
G1 X205.809 Y172.862 E5.11263
G1 X205.474 Y173.954 E5.15062
G1 X205.083 Y174.975 E5.18699
G1 X204.55 Y176.134 E5.22942
G1 X204.046 Y177.064 E5.2646
G1 X203.293 Y178.265 E5.31175
G1 X202.907 Y178.801 E5.33372
G1 X202.032 Y179.868 E5.37961
G1 X201.034 Y180.93 E5.42808
G1 X200.534 Y181.396 E5.45082
G1 X199.262 Y182.428 E5.5053
G1 X198.492 Y182.974 E5.53669
G1 X197.437 Y183.622 E5.57787
G1 X196.303 Y184.222 E5.62054
G1 X195.452 Y184.602 E5.65154
G1 X194.155 Y185.076 E5.69747
G1 X193.099 Y185.389 E5.7341
G1 X191.944 Y185.653 E5.77351
G1 X191.161 Y185.783 E5.79991
G1 X189.507 Y185.943 E5.85518
G1 X188.85 Y185.964 E5.87704
G1 X129.291 Y185.964 E7.85798
G1 X127.88 Y185.922 E7.90493
G1 X126.451 Y185.834 E7.95255
G1 X125.034 Y185.684 E7.99994
G1 X123.621 Y185.477 E8.04744
G1 X122.227 Y185.22 E8.09459
G1 X120.928 Y184.931 E8.13885
G1 X119.43 Y184.524 E8.19048
G1 X118.092 Y184.104 E8.23712
G1 X116.722 Y183.61 E8.28556
G1 X115.402 Y183.078 E8.33289
G1 X114.111 Y182.504 E8.37989
G1 X112.844 Y181.877 E8.4269
G1 X111.68 Y181.245 E8.47096
G1 X110.389 Y180.463 E8.52116
G1 X109.148 Y179.649 E8.57052
G1 X107.981 Y178.812 E8.61829
G1 X106.88 Y177.957 E8.66465
G1 X105.749 Y177.002 E8.71389
G1 X104.71 Y176.048 E8.7608
G1 X103.705 Y175.046 E8.808
G1 X102.708 Y173.987 E8.85638
G1 X101.789 Y172.919 E8.90324
G1 X100.914 Y171.817 E8.95004
G1 X100.055 Y170.639 E8.99853
G1 X99.276 Y169.485 E9.04484
G1 X98.506 Y168.234 E9.0937
G1 X97.829 Y167.032 E9.13958
G1 X97.146 Y165.69 E9.18967
G1 X96.556 Y164.406 E9.23667
G1 X96.014 Y163.099 E9.28373
G1 X95.516 Y161.746 E9.33168
G1 X95.07 Y160.377 E9.37957
G1 X94.689 Y159.01 E9.42677
G1 X94.37 Y157.657 E9.473
G1 X94.082 Y156.202 E9.52234
G1 X93.867 Y154.818 E9.56892
G1 X93.698 Y153.405 E9.61625
G1 X93.589 Y151.991 E9.66342
G1 X93.544 Y150.854 E9.70127
G1 X93.544 Y149.081 E9.76024
G1 X93.602 Y147.779 E9.80358
G1 X93.738 Y146.251 E9.85461
G1 X93.91 Y144.823 E9.90245
G1 X94.147 Y143.41 E9.9501
G1 X94.433 Y142.019 E9.99733
G1 X94.738 Y140.775 E10.03993
G1 X95.146 Y139.382 E10.08821
G1 X95.644 Y137.889 E10.14056
G1 X96.153 Y136.555 E10.18805
G1 X96.701 Y135.257 E10.23491
G1 X97.3 Y133.987 E10.28161
G1 X97.966 Y132.716 E10.32934
G1 X98.699 Y131.447 E10.37808
G1 X99.472 Y130.214 E10.42648
G1 X100.255 Y129.076 E10.47242
G1 X101.114 Y127.925 E10.52019
G1 X101.968 Y126.862 E10.56555
G1 X102.943 Y125.749 E10.61476
G1 X103.902 Y124.737 E10.66113
G1 X104.927 Y123.743 E10.70862
G1 X106.05 Y122.738 E10.75874
G0 F6000 X106.305 Y123.046
G1 F1200 X105.194 Y124.041 E10.80835
G1 X104.18 Y125.024 E10.85532
G1 X103.233 Y126.024 E10.90113
G1 X102.28 Y127.113 E10.94926
G1 X101.426 Y128.176 E10.99461
G1 X100.576 Y129.315 E11.04188
G1 X99.801 Y130.441 E11.08735
G1 X99.038 Y131.659 E11.13515
G1 X98.312 Y132.916 E11.18343
G1 X97.662 Y134.158 E11.23005
G1 X97.063 Y135.428 E11.27676
G1 X96.521 Y136.711 E11.32308
G1 X96.018 Y138.031 E11.37006
G1 X95.525 Y139.509 E11.42188
G1 X95.122 Y140.887 E11.46964
G1 X94.821 Y142.114 E11.51166
G1 X94.539 Y143.49 E11.55837
G1 X94.305 Y144.889 E11.60555
G1 X94.135 Y146.299 E11.65279
G1 X94.002 Y147.797 E11.70281
G1 X93.944 Y149.099 E11.74616
G1 X93.944 Y150.838 E11.80399
G1 X93.989 Y151.975 E11.84184
G1 X94.097 Y153.374 E11.88851
G1 X94.264 Y154.77 E11.93527
G1 X94.477 Y156.141 E11.98142
G1 X94.762 Y157.579 E12.03018
G1 X95.078 Y158.918 E12.07594
G1 X95.455 Y160.269 E12.12259
G1 X95.896 Y161.622 E12.16992
G1 X96.389 Y162.961 E12.21738
G1 X96.925 Y164.253 E12.2639
G1 X97.509 Y165.523 E12.31039
G1 X98.185 Y166.851 E12.35995
G1 X98.854 Y168.038 E12.40527
G1 X99.608 Y169.261 E12.45306
G1 X100.387 Y170.415 E12.49937
G1 X101.237 Y171.581 E12.54736
G1 X102.102 Y172.67 E12.59362
G1 X103.011 Y173.726 E12.63996
G1 X103.996 Y174.772 E12.68775
G1 X104.981 Y175.753 E12.73398
G1 X106.02 Y176.707 E12.7809
G1 X107.138 Y177.652 E12.82959
G1 X108.226 Y178.496 E12.87539
G1 X109.381 Y179.324 E12.92265
G1 X110.608 Y180.129 E12.97146
G1 X111.871 Y180.893 E13.02056
G1 X113.035 Y181.525 E13.06461
G1 X114.288 Y182.145 E13.11111
G1 X115.565 Y182.713 E13.15759
G1 X116.871 Y183.239 E13.20442
G1 X118.228 Y183.728 E13.2524
G1 X119.55 Y184.142 E13.29847
G1 X121.033 Y184.545 E13.34959
G1 X122.314 Y184.83 E13.39324
G1 X123.693 Y185.084 E13.43987
G1 X125.092 Y185.288 E13.4869
G1 X126.493 Y185.436 E13.53375
G1 X127.905 Y185.523 E13.5808
G1 X129.303 Y185.564 E13.62732
G1 X188.837 Y185.564 E15.60743
G1 X189.494 Y185.543 E15.62929
G1 X191.095 Y185.388 E15.68279
G1 X191.878 Y185.258 E15.70919
G1 X192.985 Y185.005 E15.74696
G1 X194.041 Y184.692 E15.78359
G1 X195.315 Y184.226 E15.82871
G1 X196.116 Y183.868 E15.85789
G1 X197.25 Y183.268 E15.90056
G1 X198.282 Y182.633 E15.94087
G1 X199.031 Y182.102 E15.9714
G1 X200.261 Y181.103 E16.02411
G1 X200.761 Y180.637 E16.04684
G1 X201.723 Y179.614 E16.09355
G1 X202.582 Y178.567 E16.13859
G1 X202.968 Y178.031 E16.16056
G1 X203.694 Y176.873 E16.20602
G1 X204.198 Y175.943 E16.2412
G1 X204.709 Y174.832 E16.28187
G1 X205.1 Y173.811 E16.31824
G1 X205.426 Y172.745 E16.35531
G1 X205.762 Y171.314 E16.4042
G1 X205.875 Y170.623 E16.42749
G1 X206.032 Y169.045 E16.48023
G1 X206.056 Y168.375 E16.50253
G1 X206.056 Y131.653 E17.72391
G1 X206.034 Y130.996 E17.74578
G1 X205.88 Y129.395 E17.79927
G1 X205.75 Y128.612 E17.82567
G1 X205.516 Y127.584 E17.86074
G1 X205.066 Y126.075 E17.91311
G1 X204.83 Y125.446 E17.93545
G1 X204.258 Y124.175 E17.98181
G1 X203.824 Y123.355 E18.01267
G1 X203.124 Y122.212 E18.05725
G1 X202.47 Y121.295 E18.09471
G1 X201.681 Y120.33 E18.13617
G1 X201.034 Y119.636 E18.16773
G1 X200.143 Y118.796 E18.20845
G1 X199.299 Y118.095 E18.24495
G1 X198.384 Y117.435 E18.28247
G1 X197.195 Y116.698 E18.329
G1 X196.396 Y116.271 E18.35913
G1 X195.441 Y115.832 E18.39409
G1 X194.205 Y115.367 E18.43801
G1 X193.313 Y115.09 E18.46908
G1 X191.769 Y114.725 E18.52184
G1 X191.105 Y114.617 E18.54422
G1 X189.537 Y114.459 E18.59664
G1 X188.866 Y114.436 E18.61897
G1 X129.355 Y114.436 E20.59831
G1 X128.236 Y114.458 E20.63554
G1 X126.839 Y114.542 E20.68208
G1 X125.462 Y114.671 E20.72808
G1 X124.034 Y114.865 E20.77602
G1 X122.674 Y115.099 E20.82191
G1 X121.286 Y115.397 E20.86913
G1 X119.887 Y115.761 E20.91721
G1 X118.482 Y116.184 E20.96601
G1 X117.219 Y116.621 E21.01046
G1 X115.891 Y117.145 E21.05795
G1 X114.592 Y117.716 E21.10514
G1 X113.315 Y118.337 E21.15237
G1 X112.049 Y119.014 E21.20012
G1 X110.838 Y119.727 E21.24686
G1 X109.655 Y120.493 E21.29374
G1 X108.514 Y121.29 E21.34003
G1 X107.379 Y122.155 E21.38749
G1 X106.305 Y123.046 E21.43391
G0 F6000 X106.56 Y123.354
G1 F1200 X105.461 Y124.339 E21.48299
G1 X104.459 Y125.311 E21.52942
G1 X103.524 Y126.299 E21.57467
G1 X102.592 Y127.364 E21.62174
G1 X101.738 Y128.427 E21.66709
G1 X100.897 Y129.554 E21.71386
G1 X100.13 Y130.668 E21.75884
G1 X99.377 Y131.871 E21.80605
G1 X98.658 Y133.116 E21.85387
G1 X98.024 Y134.329 E21.89939
G1 X97.425 Y135.599 E21.94609
G1 X96.889 Y136.867 E21.99188
G1 X96.392 Y138.173 E22.03835
G1 X95.904 Y139.636 E22.08965
G1 X95.506 Y140.999 E22.13688
G1 X95.209 Y142.209 E22.17832
G1 X94.931 Y143.57 E22.22452
G1 X94.7 Y144.955 E22.27122
G1 X94.532 Y146.347 E22.31785
G1 X94.402 Y147.815 E22.36687
G1 X94.344 Y149.117 E22.41022
G1 X94.344 Y150.822 E22.46693
G1 X94.389 Y151.959 E22.50477
G1 X94.496 Y153.343 E22.55094
G1 X94.661 Y154.722 E22.59714
G1 X94.872 Y156.08 E22.64284
G1 X95.154 Y157.501 E22.69103
G1 X95.467 Y158.826 E22.73631
G1 X95.84 Y160.161 E22.78241
G1 X96.276 Y161.498 E22.82919
G1 X96.764 Y162.823 E22.87615
G1 X97.294 Y164.1 E22.92214
G1 X97.872 Y165.356 E22.96812
G1 X98.541 Y166.67 E23.01717
G1 X99.202 Y167.842 E23.06192
G1 X99.94 Y169.037 E23.10863
G1 X100.719 Y170.191 E23.15494
G1 X101.56 Y171.345 E23.20244
G1 X102.415 Y172.421 E23.24815
G1 X103.314 Y173.465 E23.29397
G1 X104.287 Y174.498 E23.34117
G1 X105.263 Y175.47 E23.38698
G1 X106.29 Y176.412 E23.43333
G1 X107.396 Y177.347 E23.4815
G1 X108.471 Y178.18 E23.52674
G1 X109.614 Y178.999 E23.5735
G1 X110.827 Y179.795 E23.62176
G1 X112.062 Y180.541 E23.66975
G1 X113.226 Y181.173 E23.7138
G1 X114.465 Y181.786 E23.75978
G1 X115.727 Y182.347 E23.80571
G1 X117.02 Y182.868 E23.85208
G1 X118.348 Y183.346 E23.89902
G1 X119.67 Y183.76 E23.9451
G1 X121.138 Y184.159 E23.99569
G1 X122.401 Y184.44 E24.03873
G1 X123.765 Y184.691 E24.08486
G1 X125.149 Y184.892 E24.13137
G1 X126.535 Y185.038 E24.17773
G1 X127.93 Y185.124 E24.22421
G1 X129.315 Y185.164 E24.2703
G1 X188.824 Y185.164 E26.24957
G1 X189.481 Y185.143 E26.27144
G1 X191.029 Y184.993 E26.32317
G1 X191.812 Y184.863 E26.34956
G1 X192.871 Y184.621 E26.3857
G1 X193.927 Y184.308 E26.42233
G1 X195.177 Y183.85 E26.46661
G1 X195.929 Y183.514 E26.494
G1 X197.063 Y182.914 E26.53667
G1 X198.072 Y182.292 E26.5761
G1 X198.799 Y181.776 E26.60575
G1 X199.988 Y180.81 E26.6567
G1 X200.488 Y180.344 E26.67943
G1 X201.432 Y179.34 E26.72527
G1 X202.257 Y178.333 E26.76857
G1 X202.643 Y177.797 E26.79054
G1 X203.342 Y176.682 E26.83431
G1 X203.846 Y175.752 E26.86949
G1 X204.335 Y174.689 E26.9084
G1 X204.726 Y173.668 E26.94477
G1 X205.037 Y172.653 E26.98008
G1 X205.367 Y171.249 E27.02805
G1 X205.48 Y170.558 E27.05133
G1 X205.632 Y169.031 E27.10237
G1 X205.656 Y168.361 E27.12467
G1 X205.656 Y131.666 E28.34515
G1 X205.634 Y131.009 E28.36702
G1 X205.485 Y129.461 E28.41874
G1 X205.355 Y128.678 E28.44514
G1 X205.126 Y127.673 E28.47942
G1 X204.691 Y126.216 E28.53
G1 X204.455 Y125.587 E28.55234
G1 X203.904 Y124.362 E28.59702
G1 X203.47 Y123.542 E28.62788
G1 X202.798 Y122.444 E28.67069
G1 X202.144 Y121.527 E28.70815
G1 X201.388 Y120.603 E28.74786
G1 X200.741 Y119.909 E28.77942
G1 X199.887 Y119.104 E28.81845
G1 X199.043 Y118.403 E28.85495
G1 X198.173 Y117.775 E28.89063
G1 X197.006 Y117.051 E28.93631
G1 X196.207 Y116.624 E28.96644
G1 X195.274 Y116.196 E29.00058
G1 X194.086 Y115.749 E29.0428
G1 X193.194 Y115.472 E29.07387
G1 X191.705 Y115.12 E29.12476
G1 X191.041 Y115.012 E29.14713
G1 X189.523 Y114.859 E29.19787
G1 X188.852 Y114.836 E29.22021
G1 X129.363 Y114.836 E31.19882
G1 X128.244 Y114.858 E31.23604
G1 X126.863 Y114.941 E31.28206
G1 X125.499 Y115.069 E31.32762
G1 X124.088 Y115.261 E31.37499
G1 X122.742 Y115.493 E31.42042
G1 X121.37 Y115.788 E31.46709
G1 X119.988 Y116.148 E31.51459
G1 X118.597 Y116.567 E31.56291
G1 X117.35 Y116.999 E31.6068
G1 X116.038 Y117.517 E31.65372
G1 X114.753 Y118.082 E31.70041
G1 X113.49 Y118.697 E31.74713
G1 X112.238 Y119.367 E31.79436
G1 X111.041 Y120.072 E31.84056
G1 X109.872 Y120.829 E31.88688
G1 X108.743 Y121.618 E31.9327
G1 X107.622 Y122.473 E31.97959
G1 X106.56 Y123.354 E32.02548
G0 F6000 X106.815 Y123.662
G1 F1200 X107.865 Y122.791 E32.07086
G1 X108.972 Y121.946 E32.11718
G1 X110.089 Y121.165 E32.16251
G1 X111.244 Y120.417 E32.20828
G1 X112.427 Y119.72 E32.25394
G1 X113.665 Y119.057 E32.30065
G1 X114.914 Y118.448 E32.34687
G1 X116.185 Y117.889 E32.39305
G1 X117.481 Y117.377 E32.4394
G1 X118.712 Y116.95 E32.48274
G1 X120.089 Y116.535 E32.53057
G1 X121.454 Y116.179 E32.57749
G1 X122.81 Y115.887 E32.62362
G1 X124.142 Y115.657 E32.66858
G1 X125.536 Y115.467 E32.71537
G1 X126.887 Y115.34 E32.76051
G1 X128.252 Y115.258 E32.80599
G1 X129.371 Y115.236 E32.84321
G1 X188.838 Y115.236 E34.82109
G1 X189.509 Y115.259 E34.84342
G1 X190.977 Y115.407 E34.8925
G1 X191.641 Y115.515 E34.91487
G1 X193.075 Y115.854 E34.96388
G1 X193.967 Y116.131 E34.99495
G1 X195.133 Y116.57 E35.03639
G1 X196.018 Y116.977 E35.06879
G1 X196.817 Y117.404 E35.09892
G1 X197.939 Y118.1 E35.14283
G1 X198.787 Y118.711 E35.1776
G1 X199.631 Y119.412 E35.21409
G1 X200.448 Y120.182 E35.25143
G1 X201.095 Y120.876 E35.28298
G1 X201.819 Y121.76 E35.32099
G1 X202.457 Y122.653 E35.35749
G1 X203.116 Y123.729 E35.39946
G1 X203.55 Y124.549 E35.43032
G1 X204.08 Y125.728 E35.47331
G1 X204.316 Y126.357 E35.49565
G1 X204.736 Y127.762 E35.54443
G1 X204.96 Y128.744 E35.57793
G1 X205.09 Y129.527 E35.60433
G1 X205.234 Y131.022 E35.65428
G1 X205.256 Y131.679 E35.67615
G1 X205.256 Y168.347 E36.89573
G1 X205.232 Y169.017 E36.91803
G1 X205.085 Y170.493 E36.96736
G1 X204.972 Y171.184 E36.99065
G1 X204.648 Y172.561 E37.0377
G1 X204.352 Y173.525 E37.07124
G1 X203.961 Y174.546 E37.1076
G1 X203.494 Y175.561 E37.14476
G1 X202.99 Y176.491 E37.17995
G1 X202.318 Y177.563 E37.22203
G1 X201.932 Y178.099 E37.244
G1 X201.14 Y179.066 E37.28557
G1 X200.215 Y180.051 E37.33051
G1 X199.715 Y180.517 E37.35325
G1 X198.547 Y181.465 E37.40328
G1 X197.862 Y181.951 E37.43121
G1 X196.853 Y182.573 E37.47064
G1 X195.766 Y183.149 E37.51155
G1 X195.039 Y183.474 E37.53804
G1 X193.813 Y183.924 E37.58148
G1 X192.757 Y184.237 E37.61811
G1 X191.746 Y184.468 E37.6526
G1 X190.963 Y184.598 E37.679
G1 X189.468 Y184.743 E37.72896
G1 X188.811 Y184.764 E37.75082
G1 X129.326 Y184.764 E39.7293
G1 X127.955 Y184.725 E39.77492
G1 X126.577 Y184.64 E39.82084
G1 X125.206 Y184.496 E39.86669
G1 X123.837 Y184.298 E39.9127
G1 X122.488 Y184.05 E39.95832
G1 X121.243 Y183.773 E40.00074
G1 X119.79 Y183.378 E40.05082
G1 X118.468 Y182.964 E40.09689
G1 X117.169 Y182.497 E40.14281
G1 X115.89 Y181.982 E40.18867
G1 X114.642 Y181.427 E40.23409
G1 X113.417 Y180.821 E40.27955
G1 X112.253 Y180.189 E40.3236
G1 X111.046 Y179.46 E40.3705
